;FLAVOR:Marlin
;TIME:370
;Filament used: 0.174213m
;Layer height: 0.28
;MINX:94.518
;MINY:94.519
;MINZ:0.28
;MAXX:125.482
;MAXY:125.48
;MAXZ:9.8
;Generated with Cura_SteamEngine 4.8.0
M140 S60
M105
M190 S60
M104 S200
M105
M109 S200
M82 ;absolute extrusion mode
; Ender 3 Custom Start G-code
G92 E0 ; Reset Extruder
G28 ; Home all axes
G1 Z2.0 F3000 ; Move Z Axis up little to prevent scratching of Heat Bed
G1 X0.1 Y20 Z0.3 F5000.0 ; Move to start position
G1 X0.1 Y200.0 Z0.3 F1500.0 E15 ; Draw the first line
G1 X0.4 Y200.0 Z0.3 F5000.0 ; Move to side a little
G1 X0.4 Y20 Z0.3 F1500.0 E30 ; Draw the second line
G92 E0 ; Reset Extruder
G1 Z2.0 F3000 ; Move Z Axis up little to prevent scratching of Heat Bed
G1 X5 Y20 Z0.3 F5000.0 ; Move over to prevent blob squish
G92 E0
G92 E0
G1 F1500 E-6.5
;LAYER_COUNT:35
;LAYER:0
M107
G0 F6000 X99.26 Y98.852 Z0.28
;TYPE:SKIRT
G1 F1500 E0
G1 F1200 X99.517 Y98.61 E0.01644
G1 X100.084 Y98.111 E0.05161
G1 X100.306 Y97.929 E0.06497
G1 X100.9 Y97.475 E0.09979
G1 X101.15 Y97.297 E0.11408
G1 X101.76 Y96.893 E0.14815
G1 X101.971 Y96.763 E0.15969
G1 X102.568 Y96.42 E0.19175
G1 X102.857 Y96.266 E0.207
G1 X103.525 Y95.939 E0.24163
G1 X103.848 Y95.794 E0.25811
G1 X104.589 Y95.493 E0.29536
G1 X104.751 Y95.434 E0.30338
G1 X105.42 Y95.214 E0.33618
G1 X105.86 Y95.085 E0.35753
G1 X106.538 Y94.91 E0.39013
G1 X106.72 Y94.869 E0.39882
G1 X107.479 Y94.726 E0.43478
G1 X107.82 Y94.674 E0.45085
G1 X108.513 Y94.59 E0.48335
G1 X108.797 Y94.565 E0.49663
G1 X109.549 Y94.525 E0.53169
G1 X109.859 Y94.519 E0.54613
G1 X110.601 Y94.53 E0.58068
G1 X110.871 Y94.543 E0.59327
G1 X111.586 Y94.601 E0.62667
G1 X111.911 Y94.638 E0.6419
G1 X112.595 Y94.737 E0.67409
G1 X112.859 Y94.784 E0.68657
G1 X113.689 Y94.965 E0.72613
G1 X114.052 Y95.059 E0.74359
G1 X114.714 Y95.253 E0.77571
G1 X114.983 Y95.341 E0.78889
G1 X115.717 Y95.61 E0.82529
G1 X115.896 Y95.683 E0.83429
G1 X116.48 Y95.942 E0.86404
G1 X116.832 Y96.11 E0.8822
G1 X117.525 Y96.471 E0.91859
G1 X117.761 Y96.605 E0.93122
G1 X118.386 Y96.988 E0.96536
G1 X118.665 Y97.172 E0.98092
G1 X119.247 Y97.584 E1.01412
G1 X119.506 Y97.78 E1.02925
G1 X120.064 Y98.231 E1.06265
G1 X120.212 Y98.359 E1.07177
G1 X120.779 Y98.886 E1.10781
G1 X121.04 Y99.146 E1.12497
G1 X121.537 Y99.675 E1.15876
G1 X121.807 Y99.982 E1.1778
G1 X122.221 Y100.481 E1.20799
G1 X122.26 Y100.531 E1.21095
G1 X122.753 Y101.217 E1.25028
G1 X122.942 Y101.502 E1.26621
G1 X123.33 Y102.131 E1.30062
G1 X123.565 Y102.543 E1.3227
G1 X123.935 Y103.25 E1.35986
G1 X123.989 Y103.363 E1.36569
G1 X124.23 Y103.905 E1.39331
G1 X124.38 Y104.268 E1.4116
G1 X124.666 Y105.04 E1.44994
G1 X124.749 Y105.293 E1.46234
G1 X124.956 Y106.006 E1.49691
G1 X125.049 Y106.371 E1.51445
G1 X125.203 Y107.067 E1.54764
G1 X125.237 Y107.249 E1.55626
G1 X125.344 Y107.945 E1.58905
G1 X125.388 Y108.308 E1.60607
G1 X125.453 Y109.058 E1.64113
G1 X125.468 Y109.345 E1.65451
G1 X125.482 Y110.071 E1.68832
G1 X125.478 Y110.361 E1.70183
G1 X125.444 Y111.086 E1.73562
G1 X125.424 Y111.336 E1.7473
G1 X125.338 Y112.087 E1.7825
G1 X125.272 Y112.528 E1.80326
G1 X125.128 Y113.299 E1.83979
G1 X125.088 Y113.478 E1.84833
G1 X124.928 Y114.106 E1.8785
G1 X124.851 Y114.375 E1.89153
G1 X124.609 Y115.121 E1.92805
G1 X124.475 Y115.488 E1.94624
G1 X124.203 Y116.162 E1.98009
G1 X124.1 Y116.395 E1.99195
G1 X123.783 Y117.052 E2.02592
G1 X123.662 Y117.283 E2.03806
G1 X123.303 Y117.916 E2.07194
G1 X123.086 Y118.271 E2.09132
G1 X122.679 Y118.89 E2.12581
G1 X122.599 Y119.003 E2.13226
G1 X122.13 Y119.618 E2.16827
G1 X121.899 Y119.9 E2.18525
G1 X121.432 Y120.435 E2.21832
G1 X121.152 Y120.735 E2.23743
G1 X120.637 Y121.25 E2.27134
G1 X120.491 Y121.387 E2.28066
G1 X119.942 Y121.869 E2.31468
G1 X119.613 Y122.139 E2.3345
G1 X119.254 Y122.422 E2.35578
G1 X118.349 Y123.04 E2.40681
G1 X117.939 Y123.291 E2.4292
G1 X117.362 Y123.621 E2.46015
G1 X117.174 Y123.721 E2.47006
G1 X116.508 Y124.047 E2.50459
G1 X116.189 Y124.19 E2.52087
G1 X115.465 Y124.483 E2.55724
G1 X115.175 Y124.589 E2.57162
G1 X114.482 Y124.817 E2.60559
G1 X114.16 Y124.911 E2.62121
G1 X113.521 Y125.077 E2.65195
G1 X113.363 Y125.113 E2.65949
G1 X112.575 Y125.263 E2.69684
G1 X112.076 Y125.339 E2.72035
G1 X111.297 Y125.429 E2.75686
G1 X111.147 Y125.441 E2.76387
G1 X110.498 Y125.474 E2.79413
G1 X110.209 Y125.48 E2.80759
G1 X109.448 Y125.469 E2.84303
G1 X109.015 Y125.448 E2.86321
G1 X108.27 Y125.387 E2.89802
G1 X108.099 Y125.367 E2.90604
G1 X107.434 Y125.268 E2.93734
G1 X107.122 Y125.212 E2.9521
G1 X106.307 Y125.034 E2.99095
G1 X105.944 Y124.94 E3.00841
G1 X105.281 Y124.745 E3.04059
G1 X105.061 Y124.673 E3.05137
G1 X104.363 Y124.419 E3.08595
G1 X104.046 Y124.291 E3.10187
G1 X103.402 Y124.006 E3.13467
G1 X103.198 Y123.908 E3.1452
G1 X102.501 Y123.542 E3.18186
G1 X102.139 Y123.335 E3.20128
G1 X101.528 Y122.959 E3.23469
G1 X101.392 Y122.869 E3.24228
G1 X100.813 Y122.458 E3.27534
G1 X100.423 Y122.162 E3.29814
G1 X99.895 Y121.735 E3.32976
G1 X99.823 Y121.673 E3.33418
G1 X99.239 Y121.133 E3.37122
G1 X99.002 Y120.897 E3.38679
G1 X98.475 Y120.333 E3.42274
G1 X98.188 Y120.004 E3.44307
G1 X97.751 Y119.47 E3.4752
G1 X97.652 Y119.341 E3.48277
G1 X97.193 Y118.697 E3.51959
G1 X96.992 Y118.392 E3.5366
G1 X96.622 Y117.79 E3.56951
G1 X96.448 Y117.485 E3.58586
G1 X96.103 Y116.829 E3.62037
G1 X95.964 Y116.542 E3.63522
G1 X95.738 Y116.043 E3.66072
G1 X95.696 Y115.944 E3.66573
G1 X95.362 Y115.053 E3.71004
G1 X95.251 Y114.712 E3.72674
G1 X95.055 Y114.038 E3.75942
G1 X94.953 Y113.64 E3.77855
G1 X94.795 Y112.923 E3.81274
G1 X94.768 Y112.778 E3.81961
G1 X94.658 Y112.058 E3.85353
G1 X94.599 Y111.56 E3.87688
G1 X94.538 Y110.844 E3.91034
G1 X94.532 Y110.73 E3.91565
G1 X94.518 Y109.981 E3.95054
G1 X94.524 Y109.595 E3.96851
G1 X94.559 Y108.876 E4.00203
G1 X94.581 Y108.605 E4.01469
G1 X94.664 Y107.884 E4.04849
G1 X94.709 Y107.58 E4.0628
G1 X94.854 Y106.798 E4.09983
G1 X94.924 Y106.484 E4.11481
G1 X95.09 Y105.833 E4.14609
G1 X95.162 Y105.583 E4.15821
G1 X95.385 Y104.893 E4.19197
G1 X95.481 Y104.627 E4.20514
G1 X95.758 Y103.934 E4.23989
G1 X95.911 Y103.586 E4.25759
G1 X96.247 Y102.89 E4.29358
G1 X96.357 Y102.681 E4.30458
G1 X96.703 Y102.071 E4.33723
G1 X96.874 Y101.791 E4.35251
G1 X97.311 Y101.13 E4.38941
G1 X97.456 Y100.927 E4.40102
G1 X97.854 Y100.404 E4.43163
G1 X98.095 Y100.106 E4.44947
G1 X98.628 Y99.495 E4.48723
G1 X98.781 Y99.332 E4.49764
G1 X99.26 Y98.852 E4.52921
G0 F6000 X99.534 Y99.143
G1 F1200 X99.791 Y98.901 E4.54565
G1 X100.338 Y98.421 E4.57954
G1 X100.56 Y98.239 E4.5929
G1 X101.132 Y97.801 E4.62645
G1 X101.382 Y97.623 E4.64074
G1 X101.97 Y97.233 E4.6736
G1 X102.181 Y97.103 E4.68514
G1 X102.756 Y96.773 E4.71601
G1 X103.045 Y96.619 E4.73125
G1 X103.689 Y96.304 E4.76464
G1 X104.012 Y96.159 E4.78112
G1 X104.726 Y95.869 E4.81701
G1 X104.888 Y95.81 E4.82504
G1 X105.533 Y95.598 E4.85665
G1 X105.973 Y95.469 E4.878
G1 X106.625 Y95.3 E4.90936
G1 X106.807 Y95.259 E4.91805
G1 X107.539 Y95.121 E4.95274
G1 X107.88 Y95.069 E4.9688
G1 X108.548 Y94.989 E5.00013
G1 X108.832 Y94.964 E5.0134
G1 X109.557 Y94.925 E5.04721
G1 X109.867 Y94.919 E5.06165
G1 X110.582 Y94.929 E5.09494
G1 X110.852 Y94.942 E5.10753
G1 X111.541 Y94.998 E5.13972
G1 X111.866 Y95.035 E5.15495
G1 X112.525 Y95.131 E5.18596
G1 X112.789 Y95.178 E5.19845
G1 X113.588 Y95.352 E5.23652
G1 X113.951 Y95.446 E5.25398
G1 X114.59 Y95.633 E5.28499
G1 X114.859 Y95.721 E5.29816
G1 X115.566 Y95.981 E5.33324
G1 X115.745 Y96.054 E5.34224
G1 X116.308 Y96.303 E5.37091
G1 X116.66 Y96.471 E5.38907
G1 X117.328 Y96.819 E5.42414
G1 X117.564 Y96.953 E5.43678
G1 X118.166 Y97.322 E5.46966
G1 X118.445 Y97.506 E5.48522
G1 X119.005 Y97.902 E5.51716
G1 X119.264 Y98.098 E5.53228
G1 X119.802 Y98.534 E5.56453
G1 X119.95 Y98.662 E5.57364
G1 X120.497 Y99.169 E5.60837
G1 X120.758 Y99.429 E5.62552
G1 X121.237 Y99.939 E5.6581
G1 X121.507 Y100.246 E5.67714
G1 X121.905 Y100.727 E5.70621
G1 X121.944 Y100.777 E5.70916
G1 X122.42 Y101.438 E5.74709
G1 X122.609 Y101.723 E5.76301
G1 X122.983 Y102.329 E5.79617
G1 X123.218 Y102.741 E5.81826
G1 X123.574 Y103.423 E5.85408
G1 X123.628 Y103.536 E5.85991
G1 X123.861 Y104.058 E5.88653
G1 X124.011 Y104.421 E5.90482
G1 X124.286 Y105.165 E5.94175
G1 X124.369 Y105.418 E5.95415
G1 X124.569 Y106.105 E5.98747
G1 X124.662 Y106.47 E6.00501
G1 X124.81 Y107.14 E6.03696
G1 X124.844 Y107.322 E6.04558
G1 X124.947 Y107.993 E6.07719
G1 X124.991 Y108.356 E6.09422
G1 X125.054 Y109.079 E6.12801
G1 X125.069 Y109.366 E6.14139
G1 X125.082 Y110.065 E6.17395
G1 X125.078 Y110.355 E6.18745
G1 X125.045 Y111.054 E6.22004
G1 X125.025 Y111.304 E6.23172
G1 X124.942 Y112.028 E6.26565
G1 X124.876 Y112.469 E6.28641
G1 X124.738 Y113.212 E6.3216
G1 X124.698 Y113.391 E6.33014
G1 X124.544 Y113.996 E6.35921
G1 X124.467 Y114.265 E6.37224
G1 X124.233 Y114.984 E6.40745
G1 X124.099 Y115.351 E6.42564
G1 X123.837 Y116.001 E6.45827
G1 X123.734 Y116.234 E6.47014
G1 X123.429 Y116.866 E6.50281
G1 X123.308 Y117.097 E6.51496
G1 X122.962 Y117.707 E6.54761
G1 X122.745 Y118.062 E6.56698
G1 X122.352 Y118.659 E6.60027
G1 X122.272 Y118.772 E6.60671
G1 X121.821 Y119.364 E6.64137
G1 X121.59 Y119.646 E6.65834
G1 X121.139 Y120.162 E6.69025
G1 X120.859 Y120.462 E6.70936
G1 X120.363 Y120.959 E6.74206
G1 X120.217 Y121.096 E6.75138
G1 X119.689 Y121.56 E6.78411
G1 X119.36 Y121.83 E6.80393
G1 X119.012 Y122.103 E6.82452
G1 X118.141 Y122.698 E6.87364
G1 X117.731 Y122.949 E6.89602
G1 X117.174 Y123.267 E6.92589
G1 X116.986 Y123.367 E6.93581
G1 X116.344 Y123.682 E6.9691
G1 X116.025 Y123.825 E6.98538
G1 X115.328 Y124.108 E7.02041
G1 X115.038 Y124.214 E7.03479
G1 X114.369 Y124.433 E7.06757
G1 X114.047 Y124.527 E7.08319
G1 X113.432 Y124.687 E7.11278
G1 X113.274 Y124.723 E7.12032
G1 X112.515 Y124.867 E7.15629
G1 X112.016 Y124.943 E7.1798
G1 X111.265 Y125.03 E7.215
G1 X111.115 Y125.042 E7.22201
G1 X110.49 Y125.074 E7.25115
G1 X110.201 Y125.08 E7.26461
G1 X109.468 Y125.07 E7.29874
G1 X109.035 Y125.049 E7.31893
G1 X108.317 Y124.989 E7.35248
G1 X108.146 Y124.969 E7.3605
G1 X107.504 Y124.874 E7.39072
G1 X107.192 Y124.818 E7.40548
G1 X106.408 Y124.647 E7.44284
G1 X106.045 Y124.553 E7.4603
G1 X105.405 Y124.365 E7.49136
G1 X105.185 Y124.293 E7.50214
G1 X104.513 Y124.048 E7.53545
G1 X104.196 Y123.92 E7.55137
G1 X103.575 Y123.646 E7.58297
G1 X103.371 Y123.548 E7.59351
G1 X102.699 Y123.195 E7.62885
G1 X102.337 Y122.988 E7.64827
G1 X101.749 Y122.626 E7.68042
G1 X101.613 Y122.536 E7.68802
G1 X101.055 Y122.139 E7.71991
G1 X100.665 Y121.843 E7.7427
G1 X100.156 Y121.432 E7.77317
G1 X100.084 Y121.37 E7.77759
G1 X99.522 Y120.849 E7.81328
G1 X99.285 Y120.613 E7.82885
G1 X98.776 Y120.07 E7.86351
G1 X98.489 Y119.741 E7.88384
G1 X98.068 Y119.226 E7.91481
G1 X97.969 Y119.097 E7.92238
G1 X97.527 Y118.477 E7.95784
G1 X97.326 Y118.172 E7.97485
G1 X96.97 Y117.592 E8.00653
G1 X96.796 Y117.287 E8.02288
G1 X96.463 Y116.654 E8.05619
G1 X96.324 Y116.367 E8.07104
G1 X96.106 Y115.887 E8.09559
G1 X96.064 Y115.788 E8.10059
G1 X95.743 Y114.929 E8.14329
G1 X95.632 Y114.588 E8.15999
G1 X95.443 Y113.939 E8.19147
G1 X95.341 Y113.541 E8.2106
G1 X95.188 Y112.849 E8.2436
G1 X95.161 Y112.704 E8.25047
G1 X95.056 Y112.011 E8.28311
G1 X94.997 Y111.513 E8.30646
G1 X94.938 Y110.823 E8.3387
G1 X94.932 Y110.709 E8.34402
G1 X94.918 Y109.987 E8.37764
G1 X94.924 Y109.601 E8.39562
G1 X94.958 Y108.908 E8.42793
G1 X94.98 Y108.637 E8.44059
G1 X95.059 Y107.943 E8.47311
G1 X95.104 Y107.639 E8.48742
G1 X95.244 Y106.885 E8.52313
G1 X95.314 Y106.571 E8.53811
G1 X95.474 Y105.943 E8.56829
G1 X95.546 Y105.693 E8.5804
G1 X95.761 Y105.029 E8.6129
G1 X95.857 Y104.763 E8.62607
G1 X96.124 Y104.095 E8.65957
G1 X96.277 Y103.747 E8.67727
G1 X96.601 Y103.076 E8.71196
G1 X96.711 Y102.867 E8.72296
G1 X97.045 Y102.279 E8.75445
G1 X97.216 Y101.999 E8.76973
G1 X97.636 Y101.363 E8.80522
G1 X97.781 Y101.16 E8.81683
G1 X98.165 Y100.655 E8.84637
G1 X98.406 Y100.357 E8.86422
G1 X98.919 Y99.768 E8.90059
G1 X99.072 Y99.605 E8.911
G1 X99.534 Y99.143 E8.94142
G0 F6000 X99.808 Y99.434
G1 F1200 X100.065 Y99.192 E8.95786
G1 X100.591 Y98.73 E8.99046
G1 X100.813 Y98.548 E9.00383
G1 X101.364 Y98.127 E9.03612
G1 X101.614 Y97.949 E9.05041
G1 X102.18 Y97.574 E9.08202
G1 X102.391 Y97.444 E9.09356
G1 X102.944 Y97.126 E9.12327
G1 X103.233 Y96.972 E9.13851
G1 X103.853 Y96.669 E9.17065
G1 X104.176 Y96.524 E9.18713
G1 X104.862 Y96.245 E9.22162
G1 X105.024 Y96.186 E9.22965
G1 X105.645 Y95.982 E9.26008
G1 X106.085 Y95.853 E9.28143
G1 X106.713 Y95.69 E9.31164
G1 X106.895 Y95.649 E9.32033
G1 X107.599 Y95.517 E9.35368
G1 X107.94 Y95.465 E9.36975
G1 X108.584 Y95.387 E9.39995
G1 X108.868 Y95.362 E9.41323
G1 X109.565 Y95.325 E9.44573
G1 X109.875 Y95.319 E9.46017
G1 X110.563 Y95.329 E9.49221
G1 X110.833 Y95.342 E9.50479
G1 X111.496 Y95.395 E9.53576
G1 X111.821 Y95.432 E9.55099
G1 X112.455 Y95.525 E9.58083
G1 X112.719 Y95.572 E9.59332
G1 X113.488 Y95.74 E9.62997
G1 X113.851 Y95.834 E9.64743
G1 X114.465 Y96.014 E9.67722
G1 X114.734 Y96.102 E9.6904
G1 X115.415 Y96.351 E9.72417
G1 X115.594 Y96.424 E9.73317
G1 X116.135 Y96.664 E9.76073
G1 X116.487 Y96.832 E9.77889
G1 X117.13 Y97.167 E9.81265
G1 X117.366 Y97.301 E9.82529
G1 X117.946 Y97.656 E9.85695
G1 X118.225 Y97.84 E9.87251
G1 X118.764 Y98.221 E9.90325
G1 X119.023 Y98.417 E9.91837
G1 X119.54 Y98.836 E9.94936
G1 X119.688 Y98.964 E9.95847
G1 X120.215 Y99.453 E9.99195
G1 X120.476 Y99.713 E10.0091
G1 X120.936 Y100.203 E10.0404
G1 X121.206 Y100.51 E10.05943
G1 X121.59 Y100.973 E10.08744
G1 X121.629 Y101.023 E10.0904
G1 X122.087 Y101.659 E10.12689
G1 X122.276 Y101.944 E10.14281
G1 X122.635 Y102.527 E10.1747
G1 X122.87 Y102.939 E10.19678
G1 X123.213 Y103.595 E10.23125
G1 X123.267 Y103.708 E10.23708
G1 X123.491 Y104.211 E10.26272
G1 X123.641 Y104.574 E10.28101
G1 X123.906 Y105.289 E10.31652
G1 X123.989 Y105.542 E10.32892
G1 X124.181 Y106.204 E10.36101
G1 X124.274 Y106.569 E10.37855
G1 X124.417 Y107.214 E10.40931
G1 X124.451 Y107.396 E10.41794
G1 X124.55 Y108.042 E10.44837
G1 X124.594 Y108.405 E10.46539
G1 X124.654 Y109.1 E10.49788
G1 X124.669 Y109.387 E10.51126
G1 X124.682 Y110.06 E10.5426
G1 X124.678 Y110.35 E10.55611
G1 X124.647 Y111.022 E10.58743
G1 X124.627 Y111.272 E10.59911
G1 X124.547 Y111.969 E10.63178
G1 X124.481 Y112.41 E10.65254
G1 X124.347 Y113.124 E10.68637
G1 X124.307 Y113.303 E10.69491
G1 X124.159 Y113.886 E10.72292
G1 X124.082 Y114.155 E10.73595
G1 X123.857 Y114.846 E10.76978
G1 X123.723 Y115.213 E10.78798
G1 X123.471 Y115.839 E10.8194
G1 X123.368 Y116.072 E10.83126
G1 X123.074 Y116.681 E10.86275
G1 X122.953 Y116.912 E10.87489
G1 X122.621 Y117.499 E10.9063
G1 X122.404 Y117.854 E10.92567
G1 X122.026 Y118.428 E10.95767
G1 X121.946 Y118.541 E10.96412
G1 X121.512 Y119.111 E10.99748
G1 X121.281 Y119.393 E11.01445
G1 X120.847 Y119.889 E11.04514
G1 X120.567 Y120.189 E11.06425
G1 X120.09 Y120.667 E11.09569
G1 X119.944 Y120.804 E11.10502
G1 X119.435 Y121.251 E11.13656
G1 X119.106 Y121.521 E11.15638
G1 X118.771 Y121.784 E11.17621
G1 X117.932 Y122.357 E11.22352
G1 X117.522 Y122.608 E11.2459
G1 X116.986 Y122.914 E11.27464
G1 X116.798 Y123.014 E11.28456
G1 X116.18 Y123.317 E11.31661
G1 X115.861 Y123.46 E11.33289
G1 X115.191 Y123.732 E11.36656
G1 X114.901 Y123.838 E11.38093
G1 X114.257 Y124.049 E11.41249
G1 X113.935 Y124.143 E11.42811
G1 X113.343 Y124.297 E11.45659
G1 X113.185 Y124.333 E11.46414
G1 X112.455 Y124.472 E11.49874
G1 X111.956 Y124.548 E11.52224
G1 X111.233 Y124.632 E11.55614
G1 X111.083 Y124.644 E11.56314
G1 X110.482 Y124.674 E11.59116
G1 X110.193 Y124.68 E11.60462
G1 X109.487 Y124.67 E11.6375
G1 X109.054 Y124.649 E11.65769
G1 X108.363 Y124.592 E11.68997
G1 X108.192 Y124.572 E11.69799
G1 X107.575 Y124.481 E11.72703
G1 X107.263 Y124.425 E11.74179
G1 X106.508 Y124.259 E11.77779
G1 X106.145 Y124.165 E11.79525
G1 X105.529 Y123.985 E11.82513
G1 X105.309 Y123.913 E11.83591
G1 X104.663 Y123.677 E11.86793
G1 X104.346 Y123.549 E11.88385
G1 X103.748 Y123.285 E11.91429
G1 X103.544 Y123.187 E11.92483
G1 X102.898 Y122.848 E11.9588
G1 X102.536 Y122.641 E11.97822
G1 X101.97 Y122.292 E12.00918
G1 X101.834 Y122.202 E12.01677
G1 X101.296 Y121.821 E12.04747
G1 X100.906 Y121.525 E12.07027
G1 X100.417 Y121.129 E12.09957
