;FLAVOR:Marlin
;TIME:13265
;Filament used: 8.55953m
;Layer height: 0.16
;MINX:68.151
;MINY:70.65
;MINZ:0.2
;MAXX:151.849
;MAXY:149.349
;MAXZ:12.96
;Generated with Cura_SteamEngine 4.8.0
M140 S60
M105
M190 S60
M104 S200
M105
M109 S200
M82 ;absolute extrusion mode
; Ender 3 Custom Start G-code
G92 E0 ; Reset Extruder
G28 ; Home all axes
G1 Z2.0 F3000 ; Move Z Axis up little to prevent scratching of Heat Bed
G1 X0.1 Y20 Z0.3 F5000.0 ; Move to start position
G1 X0.1 Y200.0 Z0.3 F1500.0 E15 ; Draw the first line
G1 X0.4 Y200.0 Z0.3 F5000.0 ; Move to side a little
G1 X0.4 Y20 Z0.3 F1500.0 E30 ; Draw the second line
G92 E0 ; Reset Extruder
G1 Z2.0 F3000 ; Move Z Axis up little to prevent scratching of Heat Bed
G1 X5 Y20 Z0.3 F5000.0 ; Move over to prevent blob squish
G92 E0
G92 E0
G1 F1500 E-6.5
;LAYER_COUNT:67
;LAYER:0
M107
G0 F6000 X71.494 Y73.883 Z0.2
;TYPE:SKIRT
G1 F1500 E0
G1 F1200 X72.185 Y73.249 E0.03119
G1 X72.927 Y72.675 E0.06239
G1 X73.716 Y72.168 E0.09359
G1 X74.544 Y71.729 E0.12476
G1 X75.408 Y71.362 E0.15598
G1 X76.299 Y71.07 E0.18716
G1 X77.212 Y70.856 E0.21835
G1 X78.14 Y70.719 E0.24955
G1 X78.901 Y70.667 E0.27492
G1 X79.286 Y70.657 E0.28773
G1 X79.83 Y70.651 E0.30583
G1 X140.024 Y70.65 E2.30789
G1 X140.883 Y70.661 E2.33646
G1 X141.82 Y70.714 E2.36767
G1 X142.748 Y70.847 E2.39886
G1 X143.662 Y71.059 E2.43006
G1 X144.554 Y71.347 E2.46124
G1 X145.419 Y71.711 E2.49245
G1 X146.249 Y72.147 E2.52364
G1 X147.04 Y72.652 E2.55485
G1 X147.784 Y73.222 E2.58602
G1 X148.435 Y73.812 E2.61524
G1 X148.547 Y73.922 E2.62046
G1 X149.187 Y74.607 E2.65164
G1 X149.767 Y75.344 E2.68284
G1 X150.282 Y76.128 E2.71404
G1 X150.728 Y76.953 E2.74523
G1 X151.103 Y77.813 E2.77643
G1 X151.402 Y78.702 E2.80763
G1 X151.625 Y79.613 E2.83882
G1 X151.77 Y80.539 E2.87
G1 X151.832 Y81.375 E2.89788
G1 X151.843 Y81.763 E2.91079
G1 X151.849 Y82.286 E2.92819
G1 X151.849 Y137.638 E4.7692
G1 X151.839 Y138.377 E4.79378
G1 X151.786 Y139.313 E4.82496
G1 X151.654 Y140.242 E4.85617
G1 X151.443 Y141.156 E4.88737
G1 X151.155 Y142.048 E4.91855
G1 X150.792 Y142.913 E4.94975
G1 X150.357 Y143.744 E4.98095
G1 X149.853 Y144.534 E5.01211
G1 X149.283 Y145.279 E5.04331
G1 X148.583 Y146.041 E5.07773
G1 X148.471 Y146.152 E5.08297
G1 X147.778 Y146.783 E5.11415
G1 X147.033 Y147.353 E5.14534
G1 X146.242 Y147.857 E5.17654
G1 X145.411 Y148.292 E5.20774
G1 X144.546 Y148.655 E5.23894
G1 X143.653 Y148.943 E5.27015
G1 X142.74 Y149.154 E5.30131
G1 X141.811 Y149.286 E5.33252
G1 X141.099 Y149.333 E5.35625
G1 X140.714 Y149.343 E5.36906
G1 X140.17 Y149.349 E5.38716
G1 X79.811 Y149.349 E7.39471
G1 X79.146 Y149.339 E7.41683
G1 X78.209 Y149.285 E7.44804
G1 X77.281 Y149.151 E7.47923
G1 X76.367 Y148.939 E7.51044
G1 X75.475 Y148.65 E7.54162
G1 X74.611 Y148.285 E7.57282
G1 X73.781 Y147.849 E7.604
G1 X73.066 Y147.395 E7.63217
G1 X73.008 Y147.355 E7.63451
G1 X72.474 Y146.963 E7.65655
G1 X72.382 Y146.891 E7.66043
G1 X71.668 Y146.282 E7.69165
G1 X71.01 Y145.614 E7.72283
G1 X70.41 Y144.893 E7.75403
G1 X69.874 Y144.123 E7.78523
G1 X69.406 Y143.311 E7.81641
G1 X69.008 Y142.461 E7.84762
G1 X68.684 Y141.581 E7.87881
G1 X68.437 Y140.676 E7.91001
G1 X68.267 Y139.754 E7.9412
G1 X68.167 Y138.599 E7.97976
G1 X68.157 Y138.202 E7.99296
G1 X68.151 Y137.629 E8.01202
G1 X68.151 Y82.294 E9.85247
G1 X68.161 Y81.612 E9.87516
G1 X68.215 Y80.675 E9.90638
G1 X68.348 Y79.747 E9.93756
G1 X68.56 Y78.833 E9.96876
G1 X68.849 Y77.941 E9.99995
G1 X69.213 Y77.077 E10.03113
G1 X69.649 Y76.247 E10.06231
G1 X70.154 Y75.456 E10.09353
G1 X70.725 Y74.712 E10.12472
G1 X71.382 Y73.995 E10.15707
G1 X71.494 Y73.883 E10.16233
G0 F6000 X71.777 Y74.166
G1 F1200 X72.455 Y73.544 E10.19294
G1 X73.185 Y72.983 E10.22356
G1 X73.961 Y72.487 E10.25419
G1 X74.777 Y72.061 E10.28481
G1 X75.627 Y71.707 E10.31543
G1 X76.505 Y71.429 E10.34606
G1 X77.403 Y71.227 E10.37668
G1 X78.316 Y71.104 E10.40732
G1 X78.914 Y71.067 E10.42724
G1 X79.291 Y71.057 E10.43979
G1 X79.83 Y71.051 E10.45772
G1 X140.024 Y71.05 E12.45978
G1 X140.878 Y71.061 E12.48818
G1 X141.797 Y71.114 E12.5188
G1 X142.708 Y71.247 E12.54942
G1 X143.604 Y71.458 E12.58004
G1 X144.478 Y71.746 E12.61064
G1 X145.325 Y72.109 E12.64129
G1 X146.136 Y72.544 E12.6719
G1 X146.907 Y73.048 E12.70254
G1 X147.631 Y73.616 E12.73315
G1 X148.155 Y74.097 E12.7568
G1 X148.267 Y74.207 E12.76203
G1 X148.895 Y74.88 E12.79264
G1 X149.462 Y75.605 E12.82325
G1 X149.965 Y76.377 E12.8539
G1 X150.398 Y77.189 E12.88451
G1 X150.76 Y78.036 E12.91514
G1 X151.046 Y78.911 E12.94576
G1 X151.256 Y79.807 E12.97637
G1 X151.387 Y80.719 E13.00701
G1 X151.432 Y81.389 E13.02935
G1 X151.443 Y81.768 E13.04196
G1 X151.449 Y82.286 E13.05919
G1 X151.449 Y137.632 E14.90001
G1 X151.439 Y138.371 E14.92459
G1 X151.387 Y139.291 E14.95523
G1 X151.255 Y140.202 E14.98585
G1 X151.044 Y141.098 E15.01647
G1 X150.757 Y141.973 E15.0471
G1 X150.394 Y142.819 E15.07771
G1 X149.96 Y143.631 E15.10834
G1 X149.457 Y144.402 E15.13896
G1 X148.888 Y145.126 E15.16958
G1 X148.302 Y145.757 E15.19822
G1 X148.19 Y145.868 E15.20347
G1 X147.508 Y146.487 E15.2341
G1 X146.776 Y147.045 E15.26472
G1 X145.997 Y147.536 E15.29534
G1 X145.179 Y147.959 E15.32597
G1 X144.328 Y148.309 E15.35658
G1 X143.449 Y148.584 E15.38721
G1 X142.55 Y148.781 E15.41782
G1 X141.637 Y148.9 E15.44844
G1 X141.086 Y148.933 E15.4668
G1 X140.709 Y148.943 E15.47935
G1 X140.17 Y148.949 E15.49727
G1 X79.817 Y148.949 E17.50462
G1 X79.152 Y148.939 E17.52674
G1 X78.233 Y148.885 E17.55736
G1 X77.322 Y148.752 E17.58798
G1 X76.426 Y148.54 E17.61861
G1 X75.551 Y148.251 E17.64926
G1 X74.706 Y147.887 E17.67986
G1 X73.895 Y147.452 E17.71047
G1 X73.293 Y147.066 E17.73425
G1 X73.235 Y147.026 E17.7366
G1 X72.72 Y146.648 E17.75784
G1 X72.628 Y146.576 E17.76173
G1 X71.928 Y145.977 E17.79237
G1 X71.283 Y145.32 E17.82299
G1 X70.698 Y144.61 E17.85359
G1 X70.176 Y143.852 E17.8842
G1 X69.722 Y143.051 E17.91483
G1 X69.339 Y142.213 E17.94547
G1 X69.03 Y141.346 E17.97608
G1 X68.798 Y140.455 E18.00671
G1 X68.643 Y139.548 E18.03731
G1 X68.567 Y138.586 E18.06941
G1 X68.557 Y138.198 E18.08232
G1 X68.551 Y137.629 E18.10124
G1 X68.551 Y82.3 E19.94149
G1 X68.561 Y81.618 E19.96418
G1 X68.615 Y80.698 E19.99483
G1 X68.748 Y79.788 E20.02542
G1 X68.959 Y78.891 E20.05607
G1 X69.248 Y78.017 E20.08669
G1 X69.611 Y77.171 E20.1173
G1 X70.046 Y76.36 E20.14791
G1 X70.55 Y75.59 E20.17852
G1 X71.119 Y74.866 E20.20915
G1 X71.665 Y74.278 E20.23584
G1 X71.777 Y74.166 E20.24111
G0 F6000 X72.06 Y74.449
G1 F1200 X72.726 Y73.839 E20.27114
G1 X73.443 Y73.29 E20.30118
G1 X74.207 Y72.808 E20.33122
G1 X75.01 Y72.394 E20.36127
G1 X75.846 Y72.054 E20.39129
G1 X76.709 Y71.788 E20.42133
G1 X77.592 Y71.6 E20.45135
G1 X78.928 Y71.467 E20.49601
G1 X79.296 Y71.457 E20.50825
G1 X79.83 Y71.451 E20.52601
G1 X140.024 Y71.45 E22.52807
G1 X140.872 Y71.461 E22.55628
G1 X141.774 Y71.514 E22.58633
G1 X142.667 Y71.646 E22.61636
G1 X143.545 Y71.857 E22.64639
G1 X144.401 Y72.145 E22.67643
G1 X145.228 Y72.507 E22.70646
G1 X146.02 Y72.941 E22.73649
G1 X146.771 Y73.443 E22.76654
G1 X147.474 Y74.01 E22.79658
G1 X147.874 Y74.383 E22.81477
G1 X147.986 Y74.493 E22.81999
G1 X148.602 Y75.154 E22.85004
G1 X149.157 Y75.866 E22.88007
G1 X149.646 Y76.625 E22.9101
G1 X150.067 Y77.424 E22.94014
G1 X150.415 Y78.257 E22.97016
G1 X150.688 Y79.118 E23.00021
G1 X150.884 Y80 E23.03026
G1 X151.001 Y80.895 E23.06028
G1 X151.032 Y81.403 E23.0772
G1 X151.043 Y81.774 E23.08955
G1 X151.049 Y82.286 E23.10658
G1 X151.049 Y137.627 E24.94723
G1 X151.039 Y138.366 E24.97181
G1 X150.987 Y139.268 E25.00186
G1 X150.855 Y140.161 E25.03189
G1 X150.645 Y141.039 E25.06191
G1 X150.358 Y141.896 E25.09197
G1 X149.996 Y142.723 E25.122
G1 X149.563 Y143.515 E25.15202
G1 X149.061 Y144.266 E25.18206
G1 X148.494 Y144.97 E25.21213
G1 X148.02 Y145.473 E25.23512
G1 X147.908 Y145.584 E25.24036
G1 X147.239 Y146.19 E25.27038
G1 X146.519 Y146.736 E25.30044
G1 X145.754 Y147.215 E25.33046
G1 X144.949 Y147.625 E25.36051
G1 X144.111 Y147.962 E25.39055
G1 X143.247 Y148.223 E25.42057
G1 X142.362 Y148.407 E25.45063
G1 X141.072 Y148.533 E25.49374
G1 X140.704 Y148.543 E25.50598
G1 X140.17 Y148.549 E25.52375
G1 X79.823 Y148.549 E27.5309
G1 X79.158 Y148.539 E27.55302
G1 X78.256 Y148.485 E27.58307
G1 X77.363 Y148.352 E27.6131
G1 X76.485 Y148.141 E27.64313
G1 X75.629 Y147.852 E27.67318
G1 X74.802 Y147.489 E27.70322
G1 X74.011 Y147.055 E27.73323
G1 X73.52 Y146.737 E27.75269
G1 X73.462 Y146.697 E27.75503
G1 X72.967 Y146.333 E27.77547
G1 X72.875 Y146.261 E27.77935
G1 X72.189 Y145.673 E27.8094
G1 X71.558 Y145.027 E27.83944
G1 X70.986 Y144.328 E27.86948
G1 X70.478 Y143.581 E27.89953
G1 X70.039 Y142.792 E27.92956
G1 X69.671 Y141.967 E27.9596
G1 X69.378 Y141.113 E27.98963
G1 X69.161 Y140.236 E28.01968
G1 X69.022 Y139.344 E28.04971
G1 X68.967 Y138.572 E28.07545
G1 X68.957 Y138.193 E28.08806
G1 X68.951 Y137.629 E28.10682
G1 X68.951 Y82.305 E29.9469
G1 X68.961 Y81.623 E29.96959
G1 X69.014 Y80.722 E29.99961
G1 X69.147 Y79.829 E30.02964
G1 X69.358 Y78.951 E30.05967
G1 X69.646 Y78.095 E30.08971
G1 X70.009 Y77.268 E30.11975
G1 X70.443 Y76.476 E30.14979
G1 X70.946 Y75.726 E30.17982
G1 X71.513 Y75.023 E30.20986
G1 X71.948 Y74.561 E30.23097
G1 X72.06 Y74.449 E30.23623
G1 F1500 E23.73623
G0 F6000 X88.35 Y90.385
G0 X88.35 Y90.85
G1 F1500 E30.23623
G1 F1200 X131.65 Y90.85 E31.6764
G1 X131.65 Y105.596 E32.16685
G1 X131.241 Y105.479 E32.181
G1 X130.468 Y105.4 E32.20685
G1 X103.532 Y105.4 E33.10274
G1 X102.982 Y105.44 E33.12108
G1 X102.444 Y105.559 E33.13941
G1 X101.929 Y105.755 E33.15774
G1 X101.448 Y106.023 E33.17605
G1 X100.845 Y106.513 E33.20189
G1 X100.563 Y106.795 E33.21516
G1 X100.203 Y107.212 E33.23348
G1 X99.906 Y107.676 E33.2518
G1 X99.68 Y108.179 E33.27014
G1 X99.529 Y108.709 E33.28847
G1 X99.45 Y109.482 E33.31432
G1 X99.45 Y126.918 E33.89424
G1 X99.49 Y127.468 E33.91258
G1 X99.609 Y128.006 E33.93091
G1 X99.805 Y128.521 E33.94924
G1 X100.073 Y129.002 E33.96755
G1 X100.193 Y129.15 E33.97389
G1 X88.35 Y129.15 E34.36779
G1 X88.35 Y107.863 E35.0758
G1 X88.858 Y108.158 E35.09533
G1 X89.399 Y108.417 E35.11528
G1 X90.055 Y108.66 E35.13855
G1 X90.655 Y108.821 E35.15921
G1 X91.348 Y108.94 E35.1826
G1 X91.958 Y108.987 E35.20295
G1 X92.542 Y108.987 E35.22237
G1 X93.152 Y108.94 E35.24272
G1 X93.845 Y108.821 E35.26611
G1 X94.445 Y108.66 E35.28677
G1 X95.101 Y108.417 E35.31004
G1 X95.642 Y108.158 E35.32999
G1 X96.169 Y107.852 E35.35026
G1 X96.732 Y107.461 E35.37305
G1 X97.251 Y107.027 E35.39556
G1 X97.576 Y106.702 E35.41084
G1 X97.993 Y106.207 E35.43237
G1 X98.39 Y105.645 E35.45526
G1 X98.721 Y105.078 E35.47709
G1 X98.976 Y104.539 E35.49692
G1 X99.214 Y103.887 E35.52001
G1 X99.375 Y103.279 E35.54093
G1 X99.49 Y102.605 E35.56367
G1 X99.537 Y102.01 E35.58352
G1 X99.539 Y101.44 E35.60248
G1 X99.494 Y100.811 E35.62345
G1 X99.368 Y100.073 E35.64836
G1 X99.203 Y99.474 E35.66902
G1 X98.964 Y98.836 E35.69168
G1 X98.714 Y98.316 E35.71087
G1 X98.428 Y97.821 E35.72988
G1 X98.039 Y97.251 E35.75284
G1 X97.571 Y96.69 E35.77714
G1 X97.228 Y96.351 E35.79318
G1 X96.724 Y95.933 E35.81495
G1 X96.158 Y95.54 E35.83787
G1 X95.643 Y95.239 E35.85771
G1 X95.117 Y94.985 E35.87714
G1 X94.429 Y94.731 E35.90153
G1 X93.819 Y94.571 E35.92251
G1 X93.149 Y94.458 E35.94511
G1 X92.544 Y94.411 E35.96529
G1 X91.956 Y94.411 E35.98485
G1 X91.351 Y94.458 E36.00503
G1 X90.681 Y94.571 E36.02763
G1 X90.071 Y94.731 E36.0486
G1 X89.383 Y94.985 E36.073
G1 X88.857 Y95.239 E36.09242
G1 X88.35 Y95.535 E36.11195
G1 X88.35 Y90.85 E36.26777
G0 F6000 X87.95 Y90.45
G1 F1200 X132.05 Y90.45 E37.73455
G1 X132.05 Y106.192 E38.25813
G1 X132.034 Y106.182 E38.25876
G1 X131.554 Y105.978 E38.2761
G1 X131.049 Y105.85 E38.29343
G1 X130.468 Y105.8 E38.31282
G1 X103.532 Y105.8 E39.20872
G1 X103.012 Y105.84 E39.22607
G1 X102.505 Y105.959 E39.24339
G1 X102.022 Y106.154 E39.26071
G1 X101.574 Y106.42 E39.27804
G1 X101.128 Y106.796 E39.29744
G1 X100.846 Y107.078 E39.31071
G1 X100.507 Y107.474 E39.32805
G1 X100.232 Y107.916 E39.34536
G1 X100.028 Y108.396 E39.36271
G1 X99.9 Y108.901 E39.38003
G1 X99.85 Y109.482 E39.39943
G1 X99.85 Y126.918 E39.97935
G1 X99.89 Y127.438 E39.9967
G1 X100.009 Y127.945 E40.01402
G1 X100.204 Y128.428 E40.03135
G1 X100.47 Y128.876 E40.04867
G1 X100.846 Y129.322 E40.06808
G1 X101.074 Y129.55 E40.0788
G1 X87.95 Y129.55 E40.51531
G1 X87.95 Y107.094 E41.2622
G1 X87.997 Y107.133 E41.26423
G1 X88.56 Y107.524 E41.28703
G1 X89.031 Y107.798 E41.30515
G1 X89.572 Y108.057 E41.3251
G1 X90.159 Y108.274 E41.34591
G1 X90.759 Y108.435 E41.36658
G1 X91.379 Y108.541 E41.3875
G1 X91.989 Y108.588 E41.40785
G1 X92.511 Y108.588 E41.42521
G1 X93.121 Y108.541 E41.44556
G1 X93.741 Y108.435 E41.46648
G1 X94.341 Y108.274 E41.48714
G1 X94.928 Y108.057 E41.50795
G1 X95.469 Y107.798 E41.5279
G1 X95.94 Y107.524 E41.54603
G1 X96.503 Y107.133 E41.56883
G1 X96.968 Y106.744 E41.58899
G1 X97.293 Y106.419 E41.60428
G1 X97.666 Y105.977 E41.62351
G1 X98.063 Y105.415 E41.6464
G1 X98.359 Y104.907 E41.66595
G1 X98.614 Y104.368 E41.68579
G1 X98.828 Y103.784 E41.70647
G1 X98.989 Y103.176 E41.72739
G1 X99.091 Y102.574 E41.7477
G1 X99.138 Y101.979 E41.76755
G1 X99.14 Y101.468 E41.78455
G1 X99.095 Y100.839 E41.80552
G1 X98.982 Y100.179 E41.82779
G1 X98.817 Y99.58 E41.84846
G1 X98.603 Y99.01 E41.86871
G1 X98.353 Y98.49 E41.8879
G1 X98.097 Y98.046 E41.90494
G1 X97.708 Y97.476 E41.9279
G1 X97.29 Y96.975 E41.9496
G1 X96.947 Y96.636 E41.96564
G1 X96.496 Y96.261 E41.98515
G1 X95.93 Y95.868 E42.00806
G1 X95.469 Y95.599 E42.02582
G1 X94.943 Y95.345 E42.04524
G1 X94.328 Y95.118 E42.06705
G1 X93.718 Y94.958 E42.08802
G1 X93.118 Y94.857 E42.10826
G1 X92.513 Y94.81 E42.12844
G1 X91.987 Y94.81 E42.14594
G1 X91.382 Y94.857 E42.16612
G1 X90.782 Y94.958 E42.18636
G1 X90.172 Y95.118 E42.20733
G1 X89.557 Y95.345 E42.22914
G1 X89.031 Y95.599 E42.24856
G1 X88.57 Y95.868 E42.26632
G1 X88.004 Y96.261 E42.28924
G1 X87.95 Y96.306 E42.29157
G1 X87.95 Y90.45 E42.48634
G0 F6000 X87.55 Y90.05
G1 F1200 X132.45 Y90.05 E43.97972
G1 X132.45 Y106.961 E44.54219
G1 X132.216 Y106.762 E44.5524
G1 X131.796 Y106.51 E44.56869
G1 X131.341 Y106.33 E44.58497
G1 X130.863 Y106.226 E44.60124
G1 X130.468 Y106.2 E44.61441
G1 X103.532 Y106.2 E45.5103
G1 X103.044 Y106.24 E45.52659
G1 X102.569 Y106.359 E45.54287
G1 X102.12 Y106.553 E45.55914
G1 X101.708 Y106.818 E45.57543
G1 X101.411 Y107.079 E45.58858
G1 X101.129 Y107.361 E45.60185
G1 X100.812 Y107.734 E45.61813
G1 X100.56 Y108.154 E45.63442
G1 X100.38 Y108.609 E45.6507
G1 X100.276 Y109.087 E45.66697
G1 X100.25 Y109.482 E45.68013
G1 X100.25 Y126.918 E46.26006
G1 X100.29 Y127.406 E46.27634
G1 X100.409 Y127.881 E46.29263
G1 X100.603 Y128.33 E46.3089
G1 X100.868 Y128.742 E46.32519
G1 X101.129 Y129.039 E46.33834
G1 X101.411 Y129.321 E46.3516
G1 X101.784 Y129.638 E46.36788
G1 X102.204 Y129.89 E46.38418
G1 X102.356 Y129.95 E46.38961
G1 X87.55 Y129.95 E46.88206
G1 X87.55 Y106.196 E47.67212
G1 X87.815 Y106.461 E47.68459
G1 X88.225 Y106.804 E47.70237
G1 X88.788 Y107.195 E47.72516
G1 X89.204 Y107.437 E47.74117
G1 X89.745 Y107.696 E47.76112
G1 X90.263 Y107.887 E47.77948
G1 X90.863 Y108.048 E47.80015
G1 X91.41 Y108.142 E47.81861
G1 X92.02 Y108.189 E47.83895
G1 X92.48 Y108.189 E47.85425
G1 X93.09 Y108.142 E47.8746
G1 X93.637 Y108.048 E47.89306
G1 X94.237 Y107.887 E47.91372
G1 X94.755 Y107.696 E47.93209
G1 X95.296 Y107.437 E47.95204
G1 X95.712 Y107.195 E47.96804
G1 X96.275 Y106.804 E47.99084
G1 X96.685 Y106.461 E48.00862
G1 X97.01 Y106.136 E48.02391
G1 X97.339 Y105.746 E48.04088
G1 X97.736 Y105.184 E48.06376
G1 X97.998 Y104.736 E48.08103
G1 X98.253 Y104.197 E48.10086
G1 X98.441 Y103.682 E48.11909
G1 X98.602 Y103.074 E48.14001
G1 X98.693 Y102.542 E48.15796
G1 X98.74 Y101.947 E48.17782
G1 X98.741 Y101.497 E48.19278
G1 X98.696 Y100.868 E48.21376
G1 X98.596 Y100.285 E48.23343
G1 X98.431 Y99.686 E48.25409
G1 X98.243 Y99.183 E48.27196
G1 X97.993 Y98.663 E48.29115
G1 X97.767 Y98.272 E48.30617
G1 X97.378 Y97.702 E48.32912
G1 X97.009 Y97.259 E48.34829
G1 X96.666 Y96.92 E48.36433
G1 X96.268 Y96.59 E48.38153
G1 X95.702 Y96.197 E48.40445
G1 X95.296 Y95.959 E48.4201
G1 X94.77 Y95.705 E48.43953
G1 X94.226 Y95.505 E48.45881
G1 X93.616 Y95.345 E48.47978
