;FLAVOR:Marlin
;TIME:13239
;Filament used: 11.1771m
;Layer height: 0.28
;MINX:53.9
;MINY:70.65
;MINZ:0.28
;MAXX:166.1
;MAXY:149.35
;MAXZ:31.92
;Generated with Cura_SteamEngine 4.8.0
M140 S60
M105
M190 S60
M104 S200
M105
M109 S200
M82 ;absolute extrusion mode
; Ender 3 Custom Start G-code
G92 E0 ; Reset Extruder
G28 ; Home all axes
G1 Z2.0 F3000 ; Move Z Axis up little to prevent scratching of Heat Bed
G1 X0.1 Y20 Z0.3 F5000.0 ; Move to start position
G1 X0.1 Y200.0 Z0.3 F1500.0 E15 ; Draw the first line
G1 X0.4 Y200.0 Z0.3 F5000.0 ; Move to side a little
G1 X0.4 Y20 Z0.3 F1500.0 E30 ; Draw the second line
G92 E0 ; Reset Extruder
G1 Z2.0 F3000 ; Move Z Axis up little to prevent scratching of Heat Bed
G1 X5 Y20 Z0.3 F5000.0 ; Move over to prevent blob squish
G92 E0
G92 E0
G1 F1500 E-6.5
;LAYER_COUNT:114
;LAYER:0
M107
G0 F6000 X71.351 Y73.911 Z0.28
;TYPE:SKIRT
G1 F1500 E0
G1 F1200 X72.04 Y73.274 E0.04369
G1 X72.78 Y72.698 E0.08736
G1 X73.566 Y72.187 E0.13101
G1 X74.394 Y71.745 E0.17472
G1 X75.255 Y71.375 E0.21835
G1 X76.146 Y71.08 E0.26206
G1 X77.058 Y70.862 E0.30572
G1 X77.985 Y70.722 E0.34938
G1 X78.851 Y70.663 E0.38979
G1 X79.171 Y70.654 E0.4047
G1 X79.48 Y70.65 E0.41909
G1 X140.143 Y70.65 E3.24381
G1 X140.999 Y70.661 E3.28368
G1 X141.935 Y70.715 E3.32733
G1 X142.863 Y70.847 E3.37098
G1 X143.777 Y71.059 E3.41467
G1 X144.669 Y71.348 E3.45833
G1 X145.534 Y71.711 E3.50201
G1 X146.364 Y72.147 E3.54567
G1 X147.155 Y72.652 E3.58936
G1 X147.899 Y73.223 E3.63303
G1 X148.592 Y73.855 E3.67671
G1 X149.229 Y74.543 E3.72037
G1 X149.804 Y75.284 E3.76404
G1 X150.315 Y76.07 E3.80769
G1 X150.757 Y76.898 E3.8514
G1 X151.126 Y77.76 E3.89506
G1 X151.421 Y78.65 E3.93872
G1 X151.621 Y79.472 E3.97811
G1 X151.736 Y80.045 E4.00533
G1 X152.072 Y81.841 E4.09041
G1 X152.613 Y84.333 E4.20915
G1 X153.2 Y86.715 E4.32338
G1 X153.886 Y89.197 E4.44329
G1 X154.624 Y91.596 E4.56016
G1 X155.426 Y93.963 E4.67653
G1 X156.315 Y96.365 E4.79579
G1 X157.244 Y98.668 E4.91143
G1 X158.247 Y100.965 E5.02814
G1 X159.331 Y103.271 E5.14679
G1 X160.456 Y105.496 E5.26288
G1 X161.663 Y107.727 E5.381
G1 X162.906 Y109.873 E5.49648
G1 X164.228 Y112.005 E5.61329
G1 X164.508 Y112.469 E5.63852
G1 X164.958 Y113.292 E5.6822
G1 X165.336 Y114.15 E5.72586
G1 X165.64 Y115.037 E5.76952
G1 X165.867 Y115.947 E5.81319
G1 X166.015 Y116.873 E5.85685
G1 X166.084 Y117.781 E5.89926
G1 X166.094 Y118.166 E5.91719
G1 X166.1 Y118.709 E5.94248
G1 X166.099 Y137.65 E6.82445
G1 X166.089 Y138.379 E6.8584
G1 X166.036 Y139.315 E6.90205
G1 X165.904 Y140.244 E6.94574
G1 X165.693 Y141.158 E6.98942
G1 X165.405 Y142.05 E7.03307
G1 X165.042 Y142.915 E7.07675
G1 X164.606 Y143.746 E7.12045
G1 X164.102 Y144.536 E7.16408
G1 X163.531 Y145.281 E7.20779
G1 X162.868 Y146.006 E7.25354
G1 X162.756 Y146.118 E7.26091
G1 X162.065 Y146.752 E7.30458
G1 X161.323 Y147.326 E7.34826
G1 X160.534 Y147.833 E7.39193
G1 X159.706 Y148.272 E7.43557
G1 X158.842 Y148.639 E7.47928
G1 X157.951 Y148.931 E7.52294
G1 X157.038 Y149.145 E7.5666
G1 X156.11 Y149.282 E7.61028
G1 X155.352 Y149.334 E7.64566
G1 X154.968 Y149.344 E7.66355
G1 X154.426 Y149.35 E7.68879
G1 X141.674 Y149.346 E8.28258
G1 X140.63 Y149.35 E8.33119
G1 X65.567 Y149.349 E11.82644
G1 X64.865 Y149.339 E11.85913
G1 X63.929 Y149.286 E11.90278
G1 X63.001 Y149.153 E11.94644
G1 X62.087 Y148.941 E11.99012
G1 X61.194 Y148.653 E12.03382
G1 X60.33 Y148.289 E12.07747
G1 X59.499 Y147.853 E12.12117
G1 X58.709 Y147.348 E12.16483
G1 X57.965 Y146.778 E12.20847
G1 X57.244 Y146.118 E12.25399
G1 X57.132 Y146.006 E12.26136
G1 X56.498 Y145.315 E12.30503
G1 X55.924 Y144.573 E12.34871
G1 X55.417 Y143.784 E12.39238
G1 X54.978 Y142.956 E12.43602
G1 X54.611 Y142.092 E12.47973
G1 X54.319 Y141.201 E12.52339
G1 X54.105 Y140.288 E12.56706
G1 X53.968 Y139.36 E12.61074
G1 X53.916 Y138.599 E12.64625
G1 X53.906 Y138.202 E12.66475
G1 X53.9 Y137.628 E12.69147
G1 X53.901 Y118.698 E13.57293
G1 X53.911 Y117.994 E13.60572
G1 X53.964 Y117.057 E13.64942
G1 X54.097 Y116.129 E13.69307
G1 X54.309 Y115.215 E13.73676
G1 X54.597 Y114.323 E13.78041
G1 X54.961 Y113.458 E13.82411
G1 X55.539 Y112.389 E13.88069
G1 X56.04 Y111.574 E13.92524
G1 X56.445 Y110.936 E13.96043
G1 X57.742 Y108.764 E14.07823
G1 X58.96 Y106.585 E14.19447
G1 X60.138 Y104.334 E14.31277
G1 X61.237 Y102.076 E14.4297
G1 X62.27 Y99.794 E14.54634
G1 X63.243 Y97.472 E14.66357
G1 X64.163 Y95.09 E14.78247
G1 X64.99 Y92.754 E14.89786
G1 X65.769 Y90.338 E15.01606
G1 X66.473 Y87.924 E15.13315
G1 X67.109 Y85.486 E15.25048
G1 X67.67 Y83.058 E15.36651
G1 X68.211 Y80.369 E15.49423
G1 X68.347 Y79.641 E15.52872
G1 X68.558 Y78.727 E15.5724
G1 X68.846 Y77.835 E15.61604
G1 X69.209 Y76.97 E15.65972
G1 X69.645 Y76.14 E15.70338
G1 X70.15 Y75.349 E15.74708
G1 X70.72 Y74.605 E15.79072
G1 X71.351 Y73.911 E15.8344
G0 F6000 X71.719 Y74.11
G1 F1200 X72.402 Y73.492 E15.87729
G1 X73.136 Y72.937 E15.92014
G1 X73.916 Y72.447 E15.96303
G1 X74.735 Y72.027 E16.00589
G1 X75.588 Y71.679 E16.04878
G1 X76.467 Y71.407 E16.09163
G1 X77.367 Y71.212 E16.13451
G1 X78.28 Y71.096 E16.17736
G1 X78.862 Y71.063 E16.20451
G1 X79.182 Y71.054 E16.21941
G1 X79.48 Y71.05 E16.23329
G1 X140.143 Y71.05 E19.05801
G1 X140.993 Y71.061 E19.0976
G1 X141.912 Y71.114 E19.14046
G1 X142.823 Y71.247 E19.18333
G1 X143.719 Y71.458 E19.22619
G1 X144.593 Y71.746 E19.26904
G1 X145.44 Y72.109 E19.31195
G1 X146.251 Y72.544 E19.35481
G1 X147.021 Y73.048 E19.39766
G1 X147.745 Y73.617 E19.44054
G1 X148.417 Y74.247 E19.48343
G1 X149.032 Y74.932 E19.52629
G1 X149.585 Y75.668 E19.56916
G1 X150.072 Y76.449 E19.61202
G1 X150.489 Y77.27 E19.6549
G1 X150.834 Y78.124 E19.69778
G1 X151.103 Y79.004 E19.74063
G1 X151.229 Y79.552 E19.76681
G1 X151.343 Y80.119 E19.79374
G1 X151.68 Y81.921 E19.87911
G1 X152.222 Y84.416 E19.998
G1 X152.82 Y86.846 E20.11452
G1 X153.501 Y89.307 E20.23342
G1 X154.238 Y91.704 E20.35019
G1 X155.058 Y94.125 E20.46922
G1 X155.933 Y96.487 E20.58651
G1 X156.865 Y98.799 E20.70258
G1 X157.89 Y101.146 E20.82183
G1 X158.97 Y103.443 E20.94002
G1 X160.105 Y105.688 E21.05716
G1 X161.308 Y107.912 E21.1749
G1 X162.572 Y110.093 E21.29228
G1 X163.886 Y112.211 E21.40834
G1 X164.166 Y112.675 E21.43357
G1 X164.607 Y113.484 E21.47648
G1 X164.976 Y114.327 E21.51933
G1 X165.27 Y115.199 E21.56218
G1 X165.488 Y116.094 E21.60507
G1 X165.628 Y117.004 E21.64794
G1 X165.684 Y117.794 E21.68482
G1 X165.694 Y118.17 E21.70234
G1 X165.7 Y118.709 E21.72743
G1 X165.699 Y137.644 E22.60913
G1 X165.689 Y138.373 E22.64308
G1 X165.636 Y139.293 E22.68599
G1 X165.504 Y140.204 E22.72885
G1 X165.294 Y141.1 E22.7717
G1 X165.006 Y141.974 E22.81455
G1 X164.643 Y142.821 E22.85746
G1 X164.209 Y143.632 E22.90029
G1 X163.705 Y144.403 E22.94318
G1 X163.137 Y145.128 E22.98607
G1 X162.585 Y145.723 E23.02386
G1 X162.473 Y145.835 E23.03124
G1 X161.795 Y146.457 E23.07408
G1 X161.065 Y147.018 E23.11695
G1 X160.289 Y147.514 E23.15983
G1 X159.473 Y147.94 E23.2027
G1 X158.623 Y148.294 E23.24557
G1 X157.745 Y148.572 E23.28845
G1 X156.847 Y148.774 E23.33131
G1 X155.934 Y148.897 E23.37421
G1 X155.338 Y148.934 E23.40202
G1 X154.963 Y148.944 E23.41949
G1 X154.426 Y148.95 E23.44449
G1 X141.673 Y148.946 E24.03832
G1 X140.627 Y148.95 E24.08703
G1 X65.573 Y148.949 E27.58186
G1 X64.871 Y148.939 E27.61455
G1 X63.952 Y148.886 E27.65741
G1 X63.041 Y148.753 E27.70028
G1 X62.145 Y148.542 E27.74315
G1 X61.27 Y148.254 E27.78604
G1 X60.424 Y147.891 E27.82891
G1 X59.613 Y147.456 E27.87176
G1 X58.842 Y146.952 E27.91465
G1 X58.118 Y146.384 E27.9575
G1 X57.527 Y145.835 E27.99506
G1 X57.415 Y145.723 E28.00244
G1 X56.793 Y145.045 E28.04528
G1 X56.232 Y144.315 E28.08815
G1 X55.736 Y143.539 E28.13103
G1 X55.31 Y142.723 E28.1739
G1 X54.956 Y141.873 E28.21677
G1 X54.678 Y140.995 E28.25966
G1 X54.476 Y140.097 E28.30252
G1 X54.353 Y139.184 E28.34541
G1 X54.316 Y138.586 E28.37331
G1 X54.306 Y138.197 E28.39143
G1 X54.3 Y137.628 E28.41793
G1 X54.301 Y118.703 E29.29915
G1 X54.311 Y117.999 E29.33194
G1 X54.364 Y117.08 E29.3748
G1 X54.497 Y116.169 E29.41767
G1 X54.708 Y115.273 E29.46054
G1 X54.996 Y114.399 E29.50338
G1 X55.359 Y113.553 E29.54625
G1 X55.88 Y112.599 E29.59687
G1 X56.467 Y111.646 E29.64898
G1 X56.782 Y111.151 E29.6763
G1 X58.091 Y108.958 E29.79523
G1 X59.322 Y106.757 E29.91266
G1 X60.48 Y104.543 E30.029
G1 X61.602 Y102.237 E30.14841
G1 X62.645 Y99.935 E30.26609
G1 X63.622 Y97.605 E30.38374
G1 X64.526 Y95.261 E30.50072
G1 X65.376 Y92.862 E30.61923
G1 X66.147 Y90.468 E30.73635
G1 X66.858 Y88.032 E30.85451
G1 X67.491 Y85.605 E30.9713
G1 X68.065 Y83.121 E31.09001
G1 X68.604 Y80.443 E31.21721
G1 X68.74 Y79.715 E31.2517
G1 X68.948 Y78.818 E31.29458
G1 X69.233 Y77.942 E31.33747
G1 X69.593 Y77.095 E31.38032
G1 X70.025 Y76.282 E31.42319
G1 X70.526 Y75.51 E31.46605
G1 X71.092 Y74.784 E31.50891
G1 X71.719 Y74.11 E31.55178
G0 F6000 X72.086 Y74.31
G1 F1200 X72.764 Y73.713 E31.59384
G1 X73.492 Y73.179 E31.63588
G1 X74.264 Y72.711 E31.67792
G1 X75.075 Y72.313 E31.71999
G1 X75.918 Y71.988 E31.76206
G1 X76.786 Y71.739 E31.8041
G1 X77.673 Y71.568 E31.84617
G1 X78.873 Y71.463 E31.90226
G1 X79.193 Y71.454 E31.91716
G1 X79.48 Y71.45 E31.93053
G1 X140.143 Y71.45 E34.75525
G1 X140.987 Y71.461 E34.79456
G1 X141.889 Y71.514 E34.83663
G1 X142.782 Y71.646 E34.87866
G1 X143.66 Y71.857 E34.92071
G1 X144.516 Y72.145 E34.96276
G1 X145.343 Y72.507 E35.0048
G1 X146.135 Y72.942 E35.04688
G1 X146.886 Y73.444 E35.08894
G1 X147.589 Y74.011 E35.13099
G1 X148.239 Y74.638 E35.17305
G1 X148.831 Y75.32 E35.2151
G1 X149.361 Y76.051 E35.25714
G1 X149.823 Y76.827 E35.2992
G1 X150.216 Y77.64 E35.34124
G1 X150.534 Y78.485 E35.38328
G1 X150.837 Y79.631 E35.43848
G1 X150.95 Y80.192 E35.46513
G1 X151.291 Y82.014 E35.55144
G1 X151.834 Y84.517 E35.6707
G1 X152.425 Y86.918 E35.78584
G1 X153.119 Y89.426 E35.90701
G1 X153.863 Y91.845 E36.02486
G1 X154.676 Y94.245 E36.14285
G1 X155.558 Y96.627 E36.26112
G1 X156.504 Y98.972 E36.37887
G1 X157.519 Y101.297 E36.497
G1 X158.615 Y103.628 E36.61694
G1 X159.754 Y105.88 E36.73445
G1 X160.953 Y108.097 E36.85181
G1 X162.22 Y110.284 E36.9695
G1 X163.543 Y112.418 E37.08642
G1 X163.823 Y112.882 E37.11165
G1 X164.255 Y113.675 E37.1537
G1 X164.615 Y114.503 E37.19574
G1 X164.9 Y115.36 E37.2378
G1 X165.109 Y116.239 E37.27987
G1 X165.239 Y117.133 E37.32193
G1 X165.284 Y117.808 E37.35343
G1 X165.294 Y118.175 E37.37053
G1 X165.3 Y118.709 E37.3954
G1 X165.299 Y137.639 E38.27686
G1 X165.289 Y138.368 E38.31081
G1 X165.237 Y139.269 E38.35283
G1 X165.105 Y140.163 E38.39491
G1 X164.894 Y141.041 E38.43696
G1 X164.607 Y141.897 E38.479
G1 X164.245 Y142.725 E38.52108
G1 X163.812 Y143.517 E38.56311
G1 X163.31 Y144.268 E38.60517
G1 X162.743 Y144.971 E38.64722
G1 X162.302 Y145.44 E38.6772
G1 X162.19 Y145.552 E38.68458
G1 X161.524 Y146.162 E38.72663
G1 X160.807 Y146.711 E38.76868
G1 X160.043 Y147.193 E38.81074
G1 X159.24 Y147.607 E38.85281
G1 X158.404 Y147.947 E38.89483
G1 X157.541 Y148.213 E38.93688
G1 X156.658 Y148.401 E38.97892
G1 X155.325 Y148.534 E39.0413
G1 X154.958 Y148.544 E39.0584
G1 X154.426 Y148.55 E39.08317
G1 X141.672 Y148.546 E39.67705
G1 X140.624 Y148.55 E39.72585
G1 X65.579 Y148.549 E43.22026
G1 X64.877 Y148.539 E43.25295
G1 X63.975 Y148.486 E43.29502
G1 X63.082 Y148.354 E43.33706
G1 X62.204 Y148.143 E43.3791
G1 X61.348 Y147.855 E43.42116
G1 X60.52 Y147.493 E43.46324
G1 X59.728 Y147.059 E43.50529
G1 X58.978 Y146.556 E43.54734
G1 X58.275 Y145.99 E43.58937
G1 X57.81 Y145.552 E43.61911
G1 X57.698 Y145.44 E43.62649
G1 X57.088 Y144.774 E43.66854
G1 X56.539 Y144.057 E43.71059
G1 X56.057 Y143.293 E43.75265
G1 X55.643 Y142.49 E43.79472
G1 X55.303 Y141.654 E43.83675
G1 X55.037 Y140.791 E43.8788
G1 X54.849 Y139.908 E43.92083
G1 X54.716 Y138.572 E43.98335
G1 X54.706 Y138.193 E44.00101
G1 X54.7 Y137.628 E44.02732
G1 X54.701 Y118.709 E44.90826
G1 X54.711 Y118.005 E44.94105
G1 X54.764 Y117.104 E44.98307
G1 X54.896 Y116.21 E45.02515
G1 X55.107 Y115.332 E45.0672
G1 X55.395 Y114.476 E45.10926
G1 X55.757 Y113.649 E45.15129
G1 X56.221 Y112.808 E45.19602
G1 X56.805 Y111.861 E45.24782
G1 X57.121 Y111.365 E45.27521
G1 X58.426 Y109.179 E45.39376
G1 X59.667 Y106.96 E45.51214
G1 X60.851 Y104.696 E45.63111
G1 X61.955 Y102.428 E45.74857
G1 X63.014 Y100.089 E45.86812
G1 X63.992 Y97.754 E45.986
G1 X64.905 Y95.391 E46.10396
G1 X65.758 Y92.982 E46.22296
G1 X66.526 Y90.598 E46.33959
G1 X67.248 Y88.123 E46.45964
G1 X67.882 Y85.691 E46.57666
G1 X68.454 Y83.219 E46.69481
G1 X68.994 Y80.53 E46.82252
G1 X69.133 Y79.788 E46.85767
G1 X69.338 Y78.908 E46.89975
G1 X69.62 Y78.05 E46.9418
G1 X69.976 Y77.221 E46.98381
G1 X70.405 Y76.426 E47.02588
G1 X70.902 Y75.672 E47.06793
G1 X71.464 Y74.965 E47.10998
G1 X72.086 Y74.31 E47.15204
G1 F1500 E40.65204
G0 F6000 X109.17 Y109.286
G0 X109.564 Y109.538
G1 F1500 E47.15204
G1 F1200 X109.831 Y109.388 E47.1663
G1 X110.034 Y109.367 E47.17581
G1 X110.316 Y109.45 E47.1895
G1 X110.536 Y109.658 E47.20359
G1 X110.71 Y110 E47.22146
G1 X110.536 Y110.342 E47.23933
G1 X110.316 Y110.55 E47.25343
G1 X110.034 Y110.633 E47.26711
G1 X109.731 Y110.574 E47.28149
G1 X109.494 Y110.384 E47.29563
G1 X109.372 Y110.089 E47.3105
G1 X109.4 Y109.797 E47.32416
G1 X109.564 Y109.538 E47.33843
G0 F6000 X109.409 Y109.148
G1 F1200 X109.717 Y109.004 E47.35426
G1 X110.053 Y108.966 E47.37001
G1 X110.375 Y109.034 E47.38533
G1 X110.67 Y109.21 E47.40133
G1 X110.881 Y109.453 E47.41631
G1 X111.159 Y110 E47.44488
G1 X110.881 Y110.547 E47.47346
G1 X110.67 Y110.79 E47.48844
G1 X110.375 Y110.966 E47.50444
G1 X110.053 Y111.034 E47.51976
G1 X109.717 Y110.996 E47.53551
G1 X109.409 Y110.852 E47.55134
G1 X109.173 Y110.625 E47.56659
G1 X109.02 Y110.331 E47.58202
G1 X108.962 Y110 E47.59767
G1 X109.02 Y109.669 E47.61331
G1 X109.173 Y109.375 E47.62875
G1 X109.409 Y109.148 E47.64399
G0 F6000 X109.182 Y108.817
G1 F1200 X109.609 Y108.616 E47.66597
G1 X110.072 Y108.564 E47.68766
G1 X110.524 Y108.661 E47.70919
G1 X110.926 Y108.901 E47.73099
G1 X111.217 Y109.234 E47.75158
G1 X111.54 Y109.868 E47.78472
G1 X111.624 Y110.005 E47.7922
G1 X111.54 Y110.132 E47.79929
G1 X111.219 Y110.764 E47.8323
G1 X110.926 Y111.099 E47.85302
G1 X110.524 Y111.339 E47.87482
G1 X110.072 Y111.436 E47.89635
G1 X109.609 Y111.384 E47.91804
G1 X109.182 Y111.183 E47.94002
G1 X108.853 Y110.867 E47.96126
G1 X108.638 Y110.456 E47.98286
G1 X108.562 Y110 E48.00438
G1 X108.638 Y109.544 E48.02591
G1 X108.853 Y109.133 E48.04751
G1 X109.182 Y108.817 E48.06875
G0 F6000 X108.734 Y108.666
G1 F1200 X108.956 Y108.486 E48.08206
G1 X109.218 Y108.336 E48.09611
G1 X109.501 Y108.231 E48.11017
G1 X109.79 Y108.174 E48.12389
G1 X110.085 Y108.164 E48.13763
G1 X110.39 Y108.203 E48.15195
G1 X110.662 Y108.284 E48.16516
G1 X110.928 Y108.414 E48.17895
G1 X111.18 Y108.591 E48.19329
G1 X111.391 Y108.797 E48.20702
G1 X111.565 Y109.034 E48.22071
G1 X111.897 Y109.686 E48.25478
G1 X112.096 Y110.005 E48.27229
G1 X111.897 Y110.314 E48.2894
G1 X111.565 Y110.966 E48.32347
G1 X111.394 Y111.2 E48.33697
G1 X111.181 Y111.408 E48.35083
G1 X110.928 Y111.586 E48.36523
G1 X110.662 Y111.716 E48.37902
G1 X110.39 Y111.797 E48.39223
G1 X110.085 Y111.836 E48.40655
G1 X109.79 Y111.826 E48.4203
G1 X109.501 Y111.769 E48.43401
G1 X109.218 Y111.664 E48.44807
G1 X108.956 Y111.514 E48.46213
G1 X108.734 Y111.334 E48.47543
G1 X108.535 Y111.111 E48.48935
G1 X108.375 Y110.859 E48.50325
G1 X108.258 Y110.584 E48.51717
G1 X108.184 Y110.287 E48.53142
G1 X108.16 Y110 E48.54483
G1 X108.184 Y109.713 E48.55824
G1 X108.258 Y109.416 E48.57249
G1 X108.375 Y109.141 E48.58641
G1 X108.535 Y108.889 E48.60031
G1 X108.734 Y108.666 E48.61422
G0 F6000 X108.461 Y108.372
G1 F1200 X108.726 Y108.157 E48.63011
G1 X109.053 Y107.971 E48.64763
G1 X109.393 Y107.844 E48.66453
G1 X109.736 Y107.776 E48.68081
G1 X110.11 Y107.763 E48.69824
G1 X110.47 Y107.809 E48.71514
G1 X110.811 Y107.911 E48.73171
G1 X111.13 Y108.066 E48.74823
G1 X111.44 Y108.285 E48.7659
G1 X111.696 Y108.535 E48.78256
G1 X111.903 Y108.817 E48.79885
G1 X112.253 Y109.505 E48.8348
G1 X112.478 Y109.858 E48.85429
G1 X112.612 Y110 E48.86338
G1 X112.455 Y110.172 E48.87422
G1 X112.253 Y110.495 E48.89196
G1 X111.903 Y111.183 E48.92791
G1 X111.696 Y111.465 E48.94419
G1 X111.44 Y111.715 E48.96086
